; G-Code generated by Simplify3D(R) Version 4.1.2
; Oct 15, 2021 at 11:36:59 AM
; Settings Summary
;   processName,Process1
;   applyToModels,confocaldishsupport
;   profileName,FlashForge Creator Pro 2 Fine (modified)
;   profileVersion,2021-04-21 10:20:29
;   baseProfile,FlashForge Creator Pro 2
;   printMaterial,PLA
;   printQuality,Medium
;   printExtruders,All Extruders
;   extruderName,Right Extruder,Left Extruder
;   extruderToolheadNumber,0,1
;   extruderDiameter,0.4,0.4
;   extruderAutoWidth,1,1
;   extruderWidth,0.48,0.48
;   extrusionMultiplier,1.06,1.05
;   extruderUseRetract,1,1
;   extruderRetractionDistance,0.6,0.8
;   extruderExtraRestartDistance,0,0
;   extruderRetractionZLift,0.4,0
;   extruderRetractionSpeed,1200,1500
;   extruderUseCoasting,0,0
;   extruderCoastingDistance,0.2,0.2
;   extruderUseWipe,0,0
;   extruderWipeDistance,5,5
;   primaryExtruder,0
;   layerHeight,0.1
;   topSolidLayers,5
;   bottomSolidLayers,3
;   perimeterOutlines,2
;   printPerimetersInsideOut,1
;   startPointOption,3
;   startPointOriginX,0.6
;   startPointOriginY,0
;   sequentialIslands,0
;   spiralVaseMode,0
;   firstLayerHeightPercentage,103
;   firstLayerWidthPercentage,98
;   firstLayerUnderspeed,0.2
;   useRaft,0
;   raftExtruder,0
;   raftTopLayers,2
;   raftBaseLayers,2
;   raftOffset,8
;   raftSeparationDistance,0.15
;   raftTopInfill,60
;   aboveRaftSpeedMultiplier,0.4
;   useSkirt,0
;   skirtExtruder,0
;   skirtLayers,1
;   skirtOutlines,10
;   skirtOffset,0.05
;   usePrimePillar,0
;   primePillarExtruder,999
;   primePillarWidth,12
;   primePillarLocation,7
;   primePillarSpeedMultiplier,0.8
;   useOozeShield,0
;   oozeShieldExtruder,0
;   oozeShieldOffset,2
;   oozeShieldOutlines,1
;   oozeShieldSidewallShape,1
;   oozeShieldSidewallAngle,30
;   oozeShieldSpeedMultiplier,1
;   infillExtruder,0
;   internalInfillPattern,Rectilinear
;   externalInfillPattern,Rectilinear
;   infillPercentage,20
;   outlineOverlapPercentage,15
;   infillExtrusionWidthPercentage,100
;   minInfillLength,3
;   infillLayerInterval,1
;   internalInfillAngles,45,-45
;   overlapInternalInfillAngles,0
;   externalInfillAngles,45,-45
;   generateSupport,0
;   supportExtruder,0
;   supportInfillPercentage,30
;   supportExtraInflation,0
;   supportBaseLayers,0
;   denseSupportExtruder,0
;   denseSupportLayers,0
;   denseSupportInfillPercentage,70
;   supportLayerInterval,1
;   supportHorizontalPartOffset,0.3
;   supportUpperSeparationLayers,1
;   supportLowerSeparationLayers,1
;   supportType,0
;   supportGridSpacing,4
;   maxOverhangAngle,45
;   supportAngles,0
;   temperatureName,Right Extruder,Left Extruder,Heated Build Platform
;   temperatureNumber,0,1,0
;   temperatureSetpointCount,1,1,1
;   temperatureSetpointLayers,1,1,1
;   temperatureSetpointTemperatures,205,0,55
;   temperatureStabilizeAtStartup,0,0,0
;   temperatureHeatedBed,0,0,1
;   fanLayers,1,2
;   fanSpeeds,0,100
;   blipFanToFullPower,0
;   adjustSpeedForCooling,1
;   minSpeedLayerTime,15
;   minCoolingSpeedSlowdown,20
;   increaseFanForCooling,0
;   minFanLayerTime,45
;   maxCoolingFanSpeed,100
;   increaseFanForBridging,0
;   bridgingFanSpeed,100
;   use5D,1
;   relativeEdistances,0
;   allowEaxisZeroing,1
;   independentExtruderAxes,1
;   includeM10123,0
;   stickySupport,1
;   applyToolheadOffsets,0
;   gcodeXoffset,0
;   gcodeYoffset,0
;   gcodeZoffset,0
;   overrideMachineDefinition,1
;   machineTypeOverride,0
;   strokeXoverride,200
;   strokeYoverride,148
;   strokeZoverride,150
;   originOffsetXoverride,100
;   originOffsetYoverride,74
;   originOffsetZoverride,0
;   homeXdirOverride,-1
;   homeYdirOverride,-1
;   homeZdirOverride,-1
;   flipXoverride,1
;   flipYoverride,-1
;   flipZoverride,1
;   toolheadOffsets,0,0|0,0|0,0|0,0|0,0|0,0
;   overrideFirmwareConfiguration,1
;   firmwareTypeOverride,FlashForge Dreamer Firmware
;   GPXconfigOverride,r2
;   baudRateOverride,115200
;   overridePrinterModels,1
;   printerModelsOverride
;   startingGcode,M118 X0 Y0 Z150 T0 T1,M140 S[bed0_temperature] T0 ; heat build platform,M104 S[extruder0_temperature] T0 ; set right extruder temperature,M104 S[extruder1_temperature] T1 ; set left extruder temperature,M107 ; turn off cooling fan,G90 ; absolute coordinates,G28 ; home all axes,M132 X Y Z A B ; recall offsets,G1 Z150.000 F420 ; position build platform,G161 X Y F3300 ; home X and Y to minimum,M7 T0 ; stabilize build platform,M6 T0 ; stabilize right extruder,M6 T1 ; stabilize left extruder,M651 ; turn on chamber fan
;   layerChangeGcode,
;   retractionGcode,
;   toolChangeGcode,
;   endingGcode,G1 Z150.000 F500 ; position build platform away from last point,M107 ; turn fan off,M104 S0 T0 ; turn off right extruder,M104 S0 T1 ; turn off left extruder,M140 S0 ; turn off build platform,M652 ; turn off chamber fan,M18 ; disable motors
;   exportFileFormat,gcode
;   celebration,0
;   celebrationSong,Random Song
;   postProcessing,{EXTENSION "g"}
;   defaultSpeed,2100
;   outlineUnderspeed,0.6
;   solidInfillUnderspeed,0.8
;   supportUnderspeed,0.7
;   rapidXYspeed,3000
;   rapidZspeed,1002
;   minBridgingArea,20
;   bridgingExtraInflation,0
;   bridgingExtrusionMultiplier,1
;   bridgingSpeedMultiplier,1
;   useFixedBridgingAngle,0
;   fixedBridgingAngle,0
;   applyBridgingToPerimeters,0
;   filamentDiameters,1.75|1.75|1.75|1.75|1.75|1.75
;   filamentPricesPerKg,600|46|46|46|46|46
;   filamentDensities,1.25|1.25|1.25|1.25|1.25|1.25
;   useMinPrintHeight,0
;   minPrintHeight,0
;   useMaxPrintHeight,0
;   maxPrintHeight,0
;   useDiaphragm,0
;   diaphragmLayerInterval,20
;   robustSlicing,1
;   mergeAllIntoSolid,0
;   onlyRetractWhenCrossingOutline,1
;   retractBetweenLayers,1
;   useRetractionMinTravel,0
;   retractionMinTravel,3
;   retractWhileWiping,0
;   onlyWipeOutlines,1
;   avoidCrossingOutline,1
;   maxMovementDetourFactor,8
;   toolChangeRetractionDistance,12
;   toolChangeExtraRestartDistance,-0.5
;   toolChangeRetractionSpeed,600
;   externalThinWallType,0
;   internalThinWallType,2
;   thinWallAllowedOverlapPercentage,10
;   singleExtrusionMinLength,1
;   singleExtrusionMinPrintingWidthPercentage,50
;   singleExtrusionMaxPrintingWidthPercentage,200
;   singleExtrusionEndpointExtension,0.2
;   horizontalSizeCompensation,0
G90
M82
M107
M118 X0 Y0 Z150 T0 T1
M140 S55 T0 ; heat build platform
M104 S205 T0 ; set right extruder temperature
M104 S0 T1 ; set left extruder temperature
M107 ; turn off cooling fan
G90 ; absolute coordinates
G28 ; home all axes
M132 X Y Z A B ; recall offsets
G1 Z150.000 F420 ; position build platform
G161 X Y F3300 ; home X and Y to minimum
M7 T0 ; stabilize build platform
M6 T0 ; stabilize right extruder
M6 T1 ; stabilize left extruder
M651 ; turn on chamber fan
; process Process1
; layer 1, Z = 0.103
M108 T0
G92 E0.0000
G1 E-0.6000 F1200
; feature inner perimeter
; tool H0.103 W0.470
G1 Z0.400 F1002
G1 X1.769 Y22.526 F3000
G1 Z0.103 F1002
G1 E0.0000 F1200
G92 E0.0000
G1 X2.079 Y22.836 E0.0094 F336
G1 X2.360 Y23.033 E0.0167
G1 X2.670 Y23.178 E0.0240
G1 X3.002 Y23.266 E0.0313
G1 X3.344 Y23.296 E0.0387
G1 X3.685 Y23.266 E0.0460
G1 X4.017 Y23.178 E0.0533
G1 X4.328 Y23.033 E0.0606
G1 X4.609 Y22.836 E0.0680
G1 X4.919 Y22.526 E0.0773
G1 X5.228 Y22.836 E0.0867
G1 X5.510 Y23.033 E0.0940
G1 X5.820 Y23.178 E0.1013
G1 X6.152 Y23.266 E0.1087
G1 X6.494 Y23.296 E0.1160
G1 X6.835 Y23.266 E0.1233
G1 X7.167 Y23.178 E0.1306
G1 X7.478 Y23.033 E0.1380
G1 X7.759 Y22.836 E0.1453
G1 X8.001 Y22.594 E0.1526
G1 X8.938 Y22.594 E0.1726
G1 X8.938 Y49.182 E0.7403
G1 X8.001 Y49.182 E0.7603
G1 X7.759 Y48.940 E0.7677
G1 X7.478 Y48.743 E0.7750
G1 X7.167 Y48.599 E0.7823
G1 X6.835 Y48.510 E0.7896
G1 X6.494 Y48.480 E0.7970
G1 X6.152 Y48.510 E0.8043
G1 X5.820 Y48.599 E0.8116
G1 X5.510 Y48.743 E0.8189
G1 X5.228 Y48.940 E0.8263
G1 X4.919 Y49.250 E0.8356
G1 X4.609 Y48.940 E0.8450
G1 X4.328 Y48.743 E0.8523
G1 X4.017 Y48.599 E0.8596
G1 X3.685 Y48.510 E0.8669
G1 X3.344 Y48.480 E0.8743
G1 X3.002 Y48.510 E0.8816
G1 X2.670 Y48.599 E0.8889
G1 X2.360 Y48.743 E0.8963
G1 X2.079 Y48.940 E0.9036
G1 X1.769 Y49.250 E0.9129
G1 X1.459 Y48.940 E0.9223
G1 X1.178 Y48.743 E0.9296
G1 X0.867 Y48.599 E0.9369
G1 X0.535 Y48.510 E0.9443
G1 X0.194 Y48.480 E0.9516
G1 X-0.148 Y48.510 E0.9589
G1 X-0.480 Y48.599 E0.9662
G1 X-0.790 Y48.743 E0.9736
G1 X-1.071 Y48.940 E0.9809
G1 X-1.381 Y49.250 E0.9902
G1 X-1.691 Y48.940 E0.9996
G1 X-1.972 Y48.743 E1.0069
G1 X-2.283 Y48.599 E1.0143
G1 X-2.615 Y48.510 E1.0216
G1 X-2.956 Y48.480 E1.0289
G1 X-3.298 Y48.510 E1.0362
G1 X-3.630 Y48.599 E1.0436
G1 X-3.940 Y48.743 E1.0509
G1 X-4.222 Y48.940 E1.0582
G1 X-4.464 Y49.182 E1.0655
G1 X-9.117 Y49.182 E1.1649
G1 X-8.290 Y48.319 E1.1904
G1 X-7.775 Y47.732 E1.2071
G1 X-7.259 Y47.090 E1.2247
G1 X-6.784 Y46.442 E1.2418
G1 X-6.338 Y45.775 E1.2590
G1 X-5.921 Y45.088 E1.2761
G1 X-5.535 Y44.384 E1.2932
G1 X-5.180 Y43.664 E1.3104
G1 X-4.857 Y42.929 E1.3275
G1 X-4.559 Y42.161 E1.3451
G1 X-4.308 Y41.421 E1.3618
G1 X-4.083 Y40.650 E1.3790
G1 X-3.892 Y39.871 E1.3961
G1 X-3.736 Y39.083 E1.4132
G1 X-3.613 Y38.290 E1.4304
G1 X-3.526 Y37.492 E1.4475
G1 X-3.474 Y36.691 E1.4647
G1 X-3.456 Y35.888 E1.4818
G1 X-3.474 Y35.086 E1.4989
G1 X-3.526 Y34.284 E1.5161
G1 X-3.613 Y33.486 E1.5332
G1 X-3.736 Y32.693 E1.5504
G1 X-3.892 Y31.905 E1.5675
G1 X-4.083 Y31.126 E1.5847
G1 X-4.308 Y30.355 E1.6018
G1 X-4.574 Y29.575 E1.6194
G1 X-4.857 Y28.846 E1.6361
G1 X-5.180 Y28.112 E1.6532
G1 X-5.535 Y27.392 E1.6704
G1 X-5.921 Y26.688 E1.6875
G1 X-6.338 Y26.002 E1.7046
G1 X-6.784 Y25.334 E1.7218
G1 X-7.258 Y24.687 E1.7389
G1 X-7.761 Y24.061 E1.7561
G1 X-8.290 Y23.457 E1.7732
G1 X-9.117 Y22.594 E1.7987
G1 X-4.464 Y22.594 E1.8981
G1 X-4.222 Y22.836 E1.9054
G1 X-3.940 Y23.033 E1.9127
G1 X-3.630 Y23.178 E1.9200
G1 X-3.298 Y23.266 E1.9274
G1 X-2.956 Y23.296 E1.9347
G1 X-2.615 Y23.266 E1.9420
G1 X-2.283 Y23.178 E1.9494
G1 X-1.972 Y23.033 E1.9567
G1 X-1.691 Y22.836 E1.9640
G1 X-1.381 Y22.526 E1.9734
G1 X-1.071 Y22.836 E1.9827
G1 X-0.790 Y23.033 E1.9900
G1 X-0.480 Y23.178 E1.9974
G1 X-0.148 Y23.266 E2.0047
G1 X0.194 Y23.296 E2.0120
G1 X0.535 Y23.266 E2.0193
G1 X0.867 Y23.178 E2.0267
G1 X1.178 Y23.033 E2.0340
G1 X1.459 Y22.836 E2.0413
G1 X1.769 Y22.526 E2.0507
; feature outer perimeter
G1 X2.194 Y22.286 F3000
G92 E0.0000
G1 X2.382 Y22.474 E0.0057 F252
G1 X2.596 Y22.624 E0.0113
G1 X2.832 Y22.734 E0.0168
G1 X3.084 Y22.801 E0.0224
G1 X3.344 Y22.824 E0.0280
G1 X3.603 Y22.801 E0.0335
G1 X3.855 Y22.734 E0.0391
G1 X4.092 Y22.624 E0.0447
G1 X4.305 Y22.474 E0.0502
G1 X4.494 Y22.286 E0.0559
G1 X4.597 Y22.123 E0.0600
G1 X5.241 Y22.123 E0.0738
G1 X5.344 Y22.286 E0.0779
G1 X5.532 Y22.474 E0.0836
G1 X5.746 Y22.624 E0.0891
G1 X5.982 Y22.734 E0.0947
G1 X6.234 Y22.801 E0.1003
G1 X6.494 Y22.824 E0.1058
G1 X6.753 Y22.801 E0.1114
G1 X7.005 Y22.734 E0.1170
G1 X7.242 Y22.624 E0.1225
G1 X7.455 Y22.474 E0.1281
G1 X7.644 Y22.286 E0.1338
G1 X7.747 Y22.123 E0.1379
G1 X9.408 Y22.123 E0.1734
G1 X9.408 Y49.653 E0.7612
G1 X7.747 Y49.653 E0.7967
G1 X7.644 Y49.490 E0.8008
G1 X7.455 Y49.302 E0.8065
G1 X7.242 Y49.152 E0.8121
G1 X7.005 Y49.042 E0.8176
G1 X6.753 Y48.975 E0.8232
G1 X6.494 Y48.952 E0.8288
G1 X6.234 Y48.975 E0.8343
G1 X5.982 Y49.042 E0.8399
G1 X5.746 Y49.152 E0.8455
G1 X5.532 Y49.302 E0.8510
G1 X5.344 Y49.490 E0.8567
G1 X5.241 Y49.653 E0.8608
G1 X4.597 Y49.653 E0.8746
G1 X4.494 Y49.490 E0.8787
G1 X4.305 Y49.302 E0.8844
G1 X4.092 Y49.152 E0.8899
G1 X3.855 Y49.042 E0.8955
G1 X3.603 Y48.975 E0.9011
G1 X3.344 Y48.952 E0.9067
G1 X3.084 Y48.975 E0.9122
G1 X2.832 Y49.042 E0.9178
G1 X2.596 Y49.152 E0.9234
G1 X2.382 Y49.302 E0.9289
G1 X2.194 Y49.490 E0.9346
G1 X2.091 Y49.653 E0.9387
G1 X1.447 Y49.653 E0.9525
G1 X1.344 Y49.490 E0.9566
G1 X1.155 Y49.302 E0.9623
G1 X0.942 Y49.152 E0.9678
G1 X0.705 Y49.042 E0.9734
G1 X0.453 Y48.975 E0.9790
G1 X0.194 Y48.952 E0.9845
G1 X-0.066 Y48.975 E0.9901
G1 X-0.318 Y49.042 E0.9957
G1 X-0.554 Y49.152 E1.0012
G1 X-0.768 Y49.302 E1.0068
G1 X-0.956 Y49.490 E1.0125
G1 X-1.059 Y49.653 E1.0166
G1 X-1.703 Y49.653 E1.0304
G1 X-1.806 Y49.490 E1.0345
G1 X-1.995 Y49.302 E1.0402
G1 X-2.208 Y49.152 E1.0457
G1 X-2.445 Y49.042 E1.0513
G1 X-2.696 Y48.975 E1.0569
G1 X-2.956 Y48.952 E1.0624
G1 X-3.216 Y48.975 E1.0680
G1 X-3.468 Y49.042 E1.0736
G1 X-3.704 Y49.152 E1.0791
G1 X-3.918 Y49.302 E1.0847
G1 X-4.106 Y49.490 E1.0904
G1 X-4.209 Y49.653 E1.0945
G1 X-10.368 Y49.653 E1.2260
G1 X-10.331 Y49.623 E1.2270
G1 X-9.743 Y49.107 E1.2437
G1 X-9.178 Y48.566 E1.2604
G1 X-8.637 Y48.001 E1.2771
G1 X-8.135 Y47.429 E1.2934
G1 X-7.632 Y46.803 E1.3105
G1 X-7.169 Y46.172 E1.3272
G1 X-6.735 Y45.522 E1.3439
G1 X-6.329 Y44.853 E1.3607
G1 X-5.952 Y44.167 E1.3774
G1 X-5.606 Y43.466 E1.3941
G1 X-5.291 Y42.749 E1.4108
G1 X-5.001 Y42.000 E1.4279
G1 X-4.756 Y41.280 E1.4442
G1 X-4.538 Y40.529 E1.4609
G1 X-4.352 Y39.769 E1.4776
G1 X-4.199 Y39.002 E1.4943
G1 X-4.080 Y38.228 E1.5110
G1 X-3.995 Y37.451 E1.5277
G1 X-3.944 Y36.670 E1.5444
G1 X-3.927 Y35.888 E1.5611
G1 X-3.944 Y35.106 E1.5778
G1 X-3.995 Y34.325 E1.5945
G1 X-4.080 Y33.548 E1.6112
G1 X-4.199 Y32.775 E1.6279
G1 X-4.352 Y32.007 E1.6446
G1 X-4.538 Y31.248 E1.6613
G1 X-4.756 Y30.496 E1.6780
G1 X-5.016 Y29.736 E1.6952
G1 X-5.291 Y29.027 E1.7114
G1 X-5.606 Y28.311 E1.7281
G1 X-5.952 Y27.609 E1.7448
G1 X-6.329 Y26.923 E1.7615
G1 X-6.735 Y26.254 E1.7782
G1 X-7.169 Y25.604 E1.7949
G1 X-7.632 Y24.973 E1.8116
G1 X-8.121 Y24.363 E1.8283
G1 X-8.637 Y23.775 E1.8450
G1 X-9.178 Y23.210 E1.8618
G1 X-9.743 Y22.669 E1.8785
G1 X-10.331 Y22.153 E1.8951
G1 X-10.368 Y22.123 E1.8962
G1 X-4.209 Y22.123 E2.0277
G1 X-4.106 Y22.286 E2.0318
G1 X-3.918 Y22.474 E2.0375
G1 X-3.704 Y22.624 E2.0430
G1 X-3.468 Y22.734 E2.0486
G1 X-3.216 Y22.801 E2.0542
G1 X-2.956 Y22.824 E2.0598
G1 X-2.696 Y22.801 E2.0653
G1 X-2.445 Y22.734 E2.0709
G1 X-2.208 Y22.624 E2.0765
G1 X-1.995 Y22.474 E2.0820
G1 X-1.806 Y22.286 E2.0877
G1 X-1.703 Y22.123 E2.0918
G1 X-1.059 Y22.123 E2.1056
G1 X-0.956 Y22.286 E2.1097
G1 X-0.768 Y22.474 E2.1154
G1 X-0.554 Y22.624 E2.1209
G1 X-0.318 Y22.734 E2.1265
G1 X-0.066 Y22.801 E2.1321
G1 X0.194 Y22.824 E2.1376
G1 X0.453 Y22.801 E2.1432
G1 X0.705 Y22.734 E2.1488
G1 X0.942 Y22.624 E2.1543
G1 X1.155 Y22.474 E2.1599
G1 X1.344 Y22.286 E2.1656
G1 X1.447 Y22.123 E2.1697
G1 X2.091 Y22.123 E2.1835
G1 X2.194 Y22.286 E2.1876
; feature solid layer
G1 X2.382 Y22.474 F3000
G1 X2.596 Y22.624
G1 X2.832 Y22.734
G1 X3.084 Y22.801
G1 X3.344 Y22.824
G1 X3.603 Y22.801
G1 X3.855 Y22.734
G1 X4.092 Y22.624
G1 X4.245 Y22.516
G1 X5.919 Y22.705
G1 X5.982 Y22.734
G1 X6.234 Y22.801
G1 X6.494 Y22.824
G1 X6.753 Y22.801
G1 X6.762 Y22.799
G1 X8.490 Y22.994
G92 E0.0000
G1 X8.538 Y23.042 E0.0015 F336
G1 X8.538 Y23.707 E0.0157
G1 X7.992 Y23.161 E0.0322
G1 X7.679 Y23.380 E0.0403
G1 X7.588 Y23.422 E0.0424
G1 X8.538 Y24.372 E0.0711
G1 X8.538 Y25.037 E0.0853
G1 X7.108 Y23.607 E0.1285
G1 X6.905 Y23.662 E0.1330
G1 X6.530 Y23.695 E0.1410
G1 X8.538 Y25.703 E0.2017
G1 X8.538 Y26.368 E0.2159
G1 X5.741 Y23.570 E0.3004
G1 X5.683 Y23.555 E0.3016
G1 X5.309 Y23.380 E0.3105
G1 X4.971 Y23.143 E0.3193
G1 X4.919 Y23.092 E0.3208
G1 X4.867 Y23.143 E0.3224
G1 X4.738 Y23.233 E0.3257
G1 X8.538 Y27.033 E0.4405
G1 X8.538 Y27.698 E0.4547
G1 X4.318 Y23.478 E0.5821
G1 X4.154 Y23.555 E0.5860
G1 X3.819 Y23.645 E0.5934
G1 X8.538 Y28.364 E0.7359
G1 X8.538 Y29.029 E0.7501
G1 X3.194 Y23.685 E0.9115
G1 X2.932 Y23.662 E0.9171
G1 X2.533 Y23.555 E0.9259
G1 X2.282 Y23.438 E0.9318
G1 X8.538 Y29.694 E1.1208
G1 X8.538 Y30.359 E1.1350
G1 X1.485 Y23.306 E1.3480
G1 X1.379 Y23.380 E1.3507
G1 X1.048 Y23.534 E1.3585
G1 X8.538 Y31.025 E1.5847
G1 X8.538 Y31.690 E1.5989
G1 X0.518 Y23.669 E1.8411
G1 X0.194 Y23.698 E1.8480
G1 X-0.149 Y23.668 E1.8554
G1 X8.538 Y32.355 E2.1177
G1 X8.538 Y33.020 E2.1319
G1 X-1.386 Y23.096 E2.4316
G1 X-1.433 Y23.143 E2.4330
G1 X-1.769 Y23.378 E2.4418
G1 X8.538 Y33.686 E2.7530
G1 X8.538 Y34.351 E2.7672
G1 X-2.234 Y23.578 E3.0925
G1 X-2.545 Y23.662 E3.0994
G1 X-2.794 Y23.684 E3.1047
G1 X8.538 Y35.016 E3.4469
G1 X8.538 Y35.681 E3.4611
G1 X-3.523 Y23.620 E3.8253
G1 X-3.767 Y23.555 E3.8307
G1 X-4.141 Y23.380 E3.8395
G1 X-4.479 Y23.143 E3.8484
G1 X-4.629 Y22.994 E3.8529
